X:1
T:Title
L:1/8
M:4/4
I:linebreak $
K:D
V:1 treble nm="Voice"
V:1
"D" faaa baaa | faaf"G" gfeg |"D" faaa baaf |1"G" gf"A"ea"D" fede :|2"G" gf"A"ec"D" d2 [df]2 |: %5
"D" Adfd"G" B2 gf |"A" eaaa"D" fdfd | Adfd"G" B2 gf |1"A" ecec"D" d2 [df]2 :|2"A" ecec"D" d4 |] %10
